img/icons/oil.svg

<svg width="18" height="18" viewBox="0 0 18 18" fill="none" xmlns="http://www.w3.org/2000/svg">
<g clip-path="url(#clip0_80_1742)">
<path d="M12.8677 0.527344C12.8677 0.236109 12.6316 0 12.3403 0H10.231C9.93972 0 9.70361 0.236109 9.70361 0.527344V1.44141H12.8677V0.527344Z" fill="white"/>
<path d="M3.57033 15.2334C3.10599 14.9594 2.67743 14.6274 2.29659 14.2466C2.26878 14.2187 2.24164 14.1904 2.21443 14.1621C1.5865 14.4749 1.01908 14.912 0.549426 15.4564C0.378707 15.6543 0.378707 15.9474 0.549426 16.1454C1.5665 17.3243 3.04207 18.0005 4.59774 18.0005C5.06177 18.0005 5.51848 17.9399 5.95821 17.8242C5.40616 17.2417 4.95535 16.5748 4.62063 15.853L3.57033 15.2334Z" fill="white"/>
<path d="M4.10633 14.3245C3.99573 13.8169 3.93801 13.2947 3.93801 12.7657C3.93801 11.5683 4.22952 10.4135 4.76133 9.38687C3.90978 8.96172 2.9504 8.76717 1.97875 8.83874C1.71806 8.85794 1.51078 9.06522 1.49159 9.3259C1.37715 10.8788 1.94243 12.4002 3.04244 13.5003C3.36422 13.822 3.72218 14.0978 4.10633 14.3245Z" fill="white"/>
<path d="M14.3122 7.24804C13.4667 6.78342 12.9817 5.96361 12.9817 4.99885V3.54943C13.2524 3.52714 13.4653 3.30077 13.4653 3.0243C13.4653 2.74734 13.2516 2.52069 12.9802 2.4991C12.9801 2.4977 9.5911 2.4977 9.59103 2.4991C9.31963 2.52069 9.10595 2.74734 9.10595 3.0243C9.10595 3.30077 9.31882 3.52714 9.58955 3.54943V4.99885C9.58955 5.96357 9.10457 6.78338 8.259 7.24804C6.87496 8.00858 5.85114 9.24453 5.3457 10.6884H17.2255C16.7201 9.2445 15.6963 8.00854 14.3122 7.24804Z" fill="white"/>
<path d="M17.4944 11.7422H5.07684C5.02161 12.0774 4.99268 12.4194 4.99268 12.7657C4.99268 14.8028 5.98619 16.7233 7.65035 17.9029C7.7395 17.966 7.84603 18 7.95529 18H14.6159C14.7252 18 14.8317 17.9661 14.9209 17.9029C16.585 16.7233 17.5785 14.8028 17.5785 12.7657C17.5786 12.4194 17.5496 12.0774 17.4944 11.7422Z" fill="white"/>
</g>
<defs>
<clipPath id="clip0_80_1742">
<rect width="18" height="18" fill="white"/>
</clipPath>
</defs>
</svg>

<svg width="18" height="18" viewBox="0 0 18 18" fill="none" xmlns="http://www.w3.org/2000/svg"><g clip-path="url(#a)" fill="#fff"><path d="M12.868.527A.527.527 0 0 0 12.34 0h-2.109a.527.527 0 0 0-.527.527v.914h3.164V.527ZM3.57 15.233a6.409 6.409 0 0 1-1.273-.986l-.083-.085A5.347 5.347 0 0 0 .55 15.456a.527.527 0 0 0 0 .69 5.343 5.343 0 0 0 5.41 1.678 7.379 7.379 0 0 1-1.338-1.971l-1.05-.62Zm.536-.908a7.32 7.32 0 0 1 .655-4.938 5.347 5.347 0 0 0-2.782-.548.527.527 0 0 0-.487.487 5.343 5.343 0 0 0 2.614 4.998Zm10.206-7.077a2.501 2.501 0 0 1-1.33-2.25V3.55a.527.527 0 0 0-.002-1.05H9.591a.527.527 0 0 0-.001 1.05V5a2.5 2.5 0 0 1-1.331 2.249 6.3 6.3 0 0 0-2.913 3.44h11.88a6.3 6.3 0 0 0-2.914-3.44Zm3.182 4.494H5.077a6.308 6.308 0 0 0 2.574 6.16.518.518 0 0 0 .304.098h6.66a.53.53 0 0 0 .306-.097 6.308 6.308 0 0 0 2.573-6.16Z"/></g><defs><clipPath id="a"><path fill="#fff" d="M0 0h18v18H0z"/></clipPath></defs></svg>
